X:112
T: Schoenstes Schaetzchen ich steh draussen
N: D0168
O: Europa, Mitteleuropa, Deutschland, Untermainfranken, Spessart
N: Inzipit = Variante zum Lied
R: Tage - Lied, Kilt - Lied
M: 4/4
L: 1/8
K: Eb
 |  |  | E2B,2E2G2 | F2F2E2B,2 |
G3FG2B2 | B2z2
A2F2 | B2A2GGcB | B2G2z2
B2 | B2cBA2B2 | G4z4

@@@ Tune index: 2634
